X: 34849
T: Roaring Mary
R: reel
M: 4/4
K: Dmajor
|:DF F2 ADFA|df f2 g2 fe|d3B ABde|fede fee2|
DF F2 ADFA|df f2 g2 fe|d3B ABdf|afeg fd d2:|
|:abag f3e|d3A BAFA|dg g2 bg g2|af f2 ge e2|
DF F2 ADFA|df f2 g2 fe|d3B ABdf|afeg fd d2:|

